portfolio/dist/img/icons/strapi.svg

<?xml version="1.0" encoding="UTF-8"?>
<svg width="256px" height="271px" viewBox="0 0 256 271" version="1.1" xmlns="http://www.w3.org/2000/svg" xmlns:xlink="http://www.w3.org/1999/xlink" preserveAspectRatio="xMidYMid">
    <g>
        <path d="M116.553,0 L0,67.953 L0,98.096 L49.665,127.882 L91.366,105.163 L91.366,78.74 L179.665,28.034 L241.711,63.77 L241.637,135.222 L156.567,184.231 L128.082,173.694 L90.165,197.882 L91.128,255.785 L117.233,270.858 L234.743,203.897 L234.743,163.65 L221.531,170.761 L221.531,196.347 L117.267,255.461 L104.352,248.005 L103.644,205.48 L128.114,189.128 L157.607,199.658 L256,142.912 L255.065,55.656 L179.678,12.633 L78.016,71.009 L78.016,97.419 L49.824,112.41 L13.35,90.536 L13.35,75.622 L116.243,15.636 L137.841,29.399 L150.89,21.886 L116.553,0 Z M186.0696,71.0918 L164.1876,84.3678 L164.7436,109.9558 L187.1816,122.2678 L209.0636,108.9918 L208.5076,83.4048 L186.0696,71.0918 Z M186.3206,82.6508 L198.6226,89.4018 L198.9276,103.4308 L186.9306,110.7088 L174.6286,103.9588 L174.3236,89.9298 L186.3206,82.6508 Z M73.701,141.0235 L70.738,135.4095 C70.086,134.1755 68.558,133.7035 67.324,134.3545 L47.931,144.5855 C46.697,145.2365 46.224,146.7655 46.876,148.0005 L49.84,153.6175 C50.491,154.8515 52.02,155.3245 53.254,154.6725 L72.645,144.4385 C73.88,143.7865 74.352,142.2575 73.701,141.0235 M84.9168,158.0703 L81.9548,152.4543 C81.2838,151.1813 79.6868,150.7253 78.4438,151.4513 L45.7398,170.5723 C44.5718,171.2563 44.1488,172.7373 44.7798,173.9333 L47.7418,179.5493 C48.4138,180.8223 50.0108,181.2783 51.2528,180.5523 L83.9578,161.4313 C85.1248,160.7483 85.5478,159.2673 84.9168,158.0703 M87.9705,169.6055 L49.5225,191.7065 C48.3435,192.3835 47.9115,193.8735 48.5475,195.0765 L51.5105,200.6915 C52.1785,201.9575 53.7635,202.4165 55.0045,201.7035 L93.4525,179.6025 C94.6325,178.9245 95.0635,177.4345 94.4285,176.2315 L91.4645,170.6165 C90.7965,169.3515 89.2115,168.8925 87.9705,169.6055" fill="#000000"></path>
    </g>
</svg>

<svg width="256" height="271" xmlns="http://www.w3.org/2000/svg" preserveAspectRatio="xMidYMid"><path d="M116.553 0L0 67.953v30.143l49.665 29.786 41.701-22.719V78.74l88.299-50.706 62.046 35.736-.074 71.452-85.07 49.009-28.485-10.537-37.917 24.188.963 57.903 26.105 15.073 117.51-66.961V163.65l-13.212 7.111v25.586l-104.264 59.114-12.915-7.456-.708-42.525 24.47-16.352 29.493 10.53L256 142.912l-.935-87.256-75.387-43.023L78.016 71.009v26.41L49.824 112.41 13.35 90.536V75.622l102.893-59.986 21.598 13.763 13.049-7.513L116.553 0zm69.517 71.092l-21.882 13.276.556 25.588 22.438 12.312 21.882-13.276-.556-25.587-22.438-12.313zm.25 11.559l12.303 6.75.305 14.03-11.997 7.278-12.302-6.75-.305-14.03 11.997-7.278zM73.702 141.024l-2.963-5.614a2.527 2.527 0 00-3.414-1.055l-19.393 10.23A2.527 2.527 0 0046.876 148l2.964 5.618a2.526 2.526 0 003.414 1.055l19.391-10.234a2.528 2.528 0 001.056-3.415m11.216 17.046l-2.962-5.616a2.527 2.527 0 00-3.511-1.003L45.74 170.572a2.528 2.528 0 00-.96 3.361l2.962 5.616a2.528 2.528 0 003.51 1.003l32.706-19.12a2.528 2.528 0 00.959-3.362m3.053 11.536l-38.447 22.1a2.525 2.525 0 00-.976 3.37l2.964 5.615a2.527 2.527 0 003.493 1.012l38.449-22.1a2.527 2.527 0 00.975-3.371l-2.963-5.615a2.528 2.528 0 00-3.495-1.011"/></svg>
